packages/ffe-icons/icons/open/300/sm/hub.svg

<svg xmlns="http://www.w3.org/2000/svg" height="20" viewBox="0 -960 960 960" width="20"><path d="M240.045-58q-45.814 0-77.929-32.07-32.115-32.071-32.115-77.885 0-45.814 32.086-77.929 32.087-32.115 77.924-32.115 12.835 0 27.277 3.738 14.442 3.737 27.327 10.031l77.31-96.694q-25.923-27.154-37.885-61.269-11.961-34.115-4.346-71.114l-110.233-34.155q-13.077 28.231-40.648 44.846-27.571 16.615-58.813 16.615-45.833 0-77.916-32.07T10-575.955q0-46.814 31.57-78.429 31.57-31.615 78.384-31.615t78.429 31.583q31.615 31.583 31.615 78.416 0 4.289-.192 7.423-.192 3.135-.192 6.27l109.848 34.923q16.538-36.615 48.923-61.537 32.384-24.923 73.768-31.154v-110.772q-41.615-6.077-66.884-37.538t-25.269-71.774q0-45.61 32.07-77.725 32.07-32.115 77.884-32.115t77.929 32.083q32.115 32.083 32.115 77.916 0 40.154-25.077 71.615-25.076 31.461-67.076 37.538v110.74q42.384 5.263 74.076 30.186 31.692 24.922 48.615 62.537l109.848-34.923q-.384-3.52-.384-6.462V-576q0-45.833 32.07-77.916t77.884-32.083q45.814 0 77.929 32.07t32.115 77.884q0 45.814-32.083 77.929T840-466.001q-31.117 0-58.559-16.115-27.441-16.115-40.902-45.346l-110.233 34.155q7.615 36.999-4.346 71.306-11.962 34.308-37.885 60.692l77.31 97.079q13-6 27.384-9.885 14.385-3.884 27.22-3.884 45.837 0 77.924 32.07 32.086 32.07 32.086 77.884t-32.07 77.93q-32.07 32.114-77.884 32.114t-77.929-32.083Q610.001-122.167 610.001-168q0-19.92 7.115-38.422 7.115-18.501 21.269-35.116l-77.309-96.464Q525-314.694 480.385-314.694t-81.076-23.308l-77.694 96.464q13.769 16.615 21.077 35.09 7.307 18.475 7.307 38.448 0 45.833-32.07 77.916T240.045-58ZM120-518q24.246 0 41.124-16.877 16.877-16.878 16.877-41.124 0-24.246-16.877-41.124-16.878-16.877-41.124-16.877-24.246 0-41.124 16.877Q62-600.246 62-576q0 24.246 16.877 41.124Q95.754-517.999 120-517.999Zm120 408q24.246 0 41.124-16.877 16.877-16.878 16.877-41.124 0-24.246-16.877-41.124-16.878-16.877-41.124-16.877-24.246 0-41.124 16.877-16.877 16.878-16.877 41.124 0 24.246 16.877 41.124 16.878 16.877 41.124 16.877Zm240-672q24.246 0 41.124-16.877 16.877-16.878 16.877-41.124 0-24.246-16.877-41.124-16.878-16.877-41.124-16.877-24.246 0-41.124 16.877-16.877 16.878-16.877 41.124 0 24.246 16.877 41.124 16.878 16.877 41.124 16.877Zm0 414.306q41.898 0 71.103-29.204 29.204-29.205 29.204-71.103 0-41.898-29.204-71.103-29.205-29.204-71.103-29.204-41.898 0-71.103 29.204-29.204 29.205-29.204 71.103 0 41.898 29.204 71.103 29.205 29.204 71.103 29.204Zm240 257.694q24.246 0 41.124-16.877 16.877-16.878 16.877-41.124 0-24.246-16.877-41.124-16.878-16.877-41.124-16.877-24.246 0-41.124 16.877-16.877 16.878-16.877 41.124 0 24.246 16.877 41.124 16.878 16.877 41.124 16.877Zm120-408q24.246 0 41.124-16.877 16.877-16.878 16.877-41.124 0-24.246-16.877-41.124-16.878-16.877-41.124-16.877-24.246 0-41.124 16.877-16.877 16.878-16.877 41.124 0 24.246 16.877 41.124 16.878 16.877 41.124 16.877ZM480-840ZM120-576Zm360 108Zm360-108ZM240-168Zm480 0Z"/></svg>

<svg xmlns="http://www.w3.org/2000/svg" height="20" viewBox="0 -960 960 960" width="20"><path d="M240.05-58q-45.82 0-77.93-32.07Q130-122.14 130-167.95q0-45.82 32.09-77.93Q194.17-278 240.01-278q12.84 0 27.28 3.74 14.44 3.74 27.33 10.03l77.3-96.69q-25.92-27.16-37.88-61.27-11.96-34.12-4.35-71.12l-110.23-34.15q-13.08 28.23-40.65 44.84Q151.24-466 120-466q-45.83 0-77.92-32.07Q10-530.14 10-575.95q0-46.82 31.57-78.43Q73.14-686 119.95-686q46.82 0 78.43 31.58Q230-622.83 230-576q0 4.29-.19 7.42-.2 3.14-.2 6.27l109.85 34.93Q356-564 388.39-588.92q32.38-24.92 73.76-31.15v-110.78q-41.61-6.07-66.88-37.54Q370-799.85 370-840.16q0-45.61 32.07-77.72Q434.14-950 479.95-950q45.82 0 77.93 32.08Q590-885.83 590-840q0 40.15-25.08 71.61-25.07 31.47-67.07 37.54v110.74q42.38 5.27 74.07 30.19 31.69 24.92 48.62 62.54l109.85-34.93q-.39-3.52-.39-6.46V-576q0-45.83 32.07-77.92Q794.14-686 839.95-686q45.82 0 77.93 32.07Q950-621.86 950-576.05q0 45.82-32.08 77.93Q885.83-466 840-466q-31.12 0-58.56-16.12-27.44-16.11-40.9-45.34l-110.23 34.15q7.61 37-4.35 71.31t-37.88 60.69l77.3 97.08q13-6 27.39-9.88 14.38-3.89 27.22-3.89 45.84 0 77.92 32.07Q830-213.86 830-168.05q0 45.82-32.07 77.93Q765.86-58 720.05-58q-45.82 0-77.93-32.08Q610-122.17 610-168q0-19.92 7.12-38.42 7.11-18.5 21.27-35.12L561.08-338q-36.08 23.31-80.7 23.31-44.61 0-81.07-23.31l-77.7 96.46q13.77 16.62 21.08 35.09Q350-187.97 350-168q0 45.83-32.07 77.92Q285.86-58 240.05-58ZM120-518q24.25 0 41.12-16.88Q178-551.75 178-576q0-24.25-16.88-41.12Q144.25-634 120-634q-24.25 0-41.12 16.88Q62-600.25 62-576q0 24.25 16.88 41.12Q95.75-518 120-518Zm120 408q24.25 0 41.12-16.88Q298-143.75 298-168q0-24.25-16.88-41.12Q264.25-226 240-226q-24.25 0-41.12 16.88Q182-192.25 182-168q0 24.25 16.88 41.12Q215.75-110 240-110Zm240-672q24.25 0 41.12-16.88Q538-815.75 538-840q0-24.25-16.88-41.12Q504.25-898 480-898q-24.25 0-41.12 16.88Q422-864.25 422-840q0 24.25 16.88 41.12Q455.75-782 480-782Zm0 414.31q41.9 0 71.1-29.21 29.21-29.2 29.21-71.1 0-41.9-29.21-71.1-29.2-29.21-71.1-29.21-41.9 0-71.1 29.21-29.21 29.2-29.21 71.1 0 41.9 29.21 71.1 29.2 29.21 71.1 29.21ZM720-110q24.25 0 41.12-16.88Q778-143.75 778-168q0-24.25-16.88-41.12Q744.25-226 720-226q-24.25 0-41.12 16.88Q662-192.25 662-168q0 24.25 16.88 41.12Q695.75-110 720-110Zm120-408q24.25 0 41.12-16.88Q898-551.75 898-576q0-24.25-16.88-41.12Q864.25-634 840-634q-24.25 0-41.12 16.88Q782-600.25 782-576q0 24.25 16.88 41.12Q815.75-518 840-518ZM480-840ZM120-576Zm360 108Zm360-108ZM240-168Zm480 0Z"/></svg>
